svg/color/algo.svg

<svg width="64" height="65" viewBox="0 0 64 65" fill="none" xmlns="http://www.w3.org/2000/svg">
<rect y="0.303711" width="64" height="64" rx="32" fill="black"/>
<rect x="0.5" y="0.803711" width="63" height="63" rx="31.5" stroke="white" stroke-opacity="0.15"/>
<path d="M19.5285 48.6877L24.7301 39.7119L29.9316 30.7677L35.1015 21.7919L35.9578 20.3697L36.3384 21.7919L37.9243 27.702L36.1481 30.7677L30.9466 39.7119L25.7767 48.6877H31.9932L37.1948 39.7119L39.8907 35.066L41.1594 39.7119L43.5699 48.6877H49.152L46.7415 39.7119L44.3311 30.7677L43.6967 28.4606L47.5662 21.7919H41.9206L41.7303 21.1282L39.7638 13.7959L39.5101 12.8477H34.0865L33.9597 13.0373L28.885 21.7919L23.6834 30.7677L18.5136 39.7119L13.312 48.6877H19.5285Z" fill="white"/>
</svg>

<svg xmlns="http://www.w3.org/2000/svg" width="64" height="65" fill="none" viewBox="0 0 64 65"><rect width="64" height="64" y=".304" fill="#000" rx="32"/><rect width="63" height="63" x=".5" y=".804" stroke="#fff" stroke-opacity=".15" rx="31.5"/><path fill="#fff" d="m19.529 48.688 5.201-8.976 5.202-8.944 5.17-8.976.856-1.422.38 1.422 1.586 5.91-1.776 3.066-5.201 8.944-5.17 8.976h6.216l5.202-8.976 2.696-4.646 1.268 4.646 2.41 8.976h5.583l-2.41-8.976-2.41-8.944-.635-2.307 3.87-6.67H41.92l-.19-.663-1.967-7.332-.254-.948h-5.423l-.127.19-5.075 8.754-5.202 8.976-5.17 8.944-5.201 8.976z"/></svg>
